other/adobecomp.svg

<svg viewBox="0 0 48 48" xmlns="http://www.w3.org/2000/svg"><defs><style>.a{fill:none;stroke:#fff;stroke-linecap:round;stroke-linejoin:round;}</style></defs><path class="a" d="m40 5.5h-33c-1.1 0-2 0.9-2 2v33c0 1.1 0.9 2 2 2h33c1.1 0 2-0.9 2-2v-33c0-1.1-0.9-2-2-2z"/><path class="a" d="m24 24v-11.5"/><path class="a" d="m33.5 18.25h-19"/><path class="a" d="m24 12.5 9.5 5.75-9.5 5.75-9.5-5.75z"/><path class="a" d="m28.75 21.125 4.75 2.875-9.5 5.75-9.5-5.75 4.75-2.875"/><path class="a" d="m14.5 29.75 4.75-2.875m-2.375 4.325 4.75-2.9m11.875 1.45-9.5 5.75m-2.375-1.5 9.5-5.7m-11.875 4.325 4.75-2.875"/></svg>

<svg id="Layer_1" data-name="Layer 1" xmlns="http://www.w3.org/2000/svg" viewBox="0 0 48 48"><defs><style>.cls-1{fill:none;stroke:#fff;stroke-linecap:round;stroke-linejoin:round;}</style></defs><path class="cls-1" d="M40,5.5H7a2,2,0,0,0-2,2v33a2,2,0,0,0,2,2H40a2,2,0,0,0,2-2V7.5A2,2,0,0,0,40,5.5Z"/><path class="cls-1" d="M24,24V12.5"/><path class="cls-1" d="M33.5,18.25h-19"/><path class="cls-1" d="M24,12.5l9.5,5.75L24,24l-9.5-5.75Z"/><path class="cls-1" d="M28.75,21.12,33.5,24,24,29.75,14.5,24l4.75-2.88"/><path class="cls-1" d="M14.5,29.75l4.75-2.87M16.88,31.2l4.74-2.9M33.5,29.75,24,35.5M21.62,34l9.5-5.7M19.25,32.62,24,29.75"/></svg>
